file-sign.svg

<svg fill="currentColor" viewBox="0 0 24 24"><path d="M19.7 12.9 14 18.6h-2.3v-2.3l5.7-5.7zm3.4-.8c0 .3-.3.6-.6.9L20 15.5l-.9-.9 2.6-2.6-.6-.6-.7.7-2.3-2.3 2.2-2.1c.2-.2.6-.2.9 0l1.4 1.4c.2.2.2.6 0 .9-.2.2-.4.4-.4.6s.2.4.4.6c.3.3.6.6.5.9M3 20V4h7v5h5v1.5l2-2V8l-6-6H3c-1.1 0-2 .9-2 2v16c0 1.1.9 2 2 2h12c1.1 0 2-.9 2-2zm8-2.9c-.2 0-.4.1-.5.1L10 15H8.5l-2.1 1.7L7 14H5.5l-1 5H6l2.9-2.6.6 2.3h1l.5-.1z"/></svg>

<svg  viewBox="0 0 24 24" fill="currentColor"><path  d="M19.7 12.9L14 18.6H11.7V16.3L17.4 10.6L19.7 12.9M23.1 12.1C23.1 12.4 22.8 12.7 22.5 13L20 15.5L19.1 14.6L21.7 12L21.1 11.4L20.4 12.1L18.1 9.8L20.3 7.7C20.5 7.5 20.9 7.5 21.2 7.7L22.6 9.1C22.8 9.3 22.8 9.7 22.6 10C22.4 10.2 22.2 10.4 22.2 10.6C22.2 10.8 22.4 11 22.6 11.2C22.9 11.5 23.2 11.8 23.1 12.1M3 20V4H10V9H15V10.5L17 8.5V8L11 2H3C1.9 2 1 2.9 1 4V20C1 21.1 1.9 22 3 22H15C16.1 22 17 21.1 17 20H3M11 17.1C10.8 17.1 10.6 17.2 10.5 17.2L10 15H8.5L6.4 16.7L7 14H5.5L4.5 19H6L8.9 16.4L9.5 18.7H10.5L11 18.6V17.1Z"/></svg>
